packages/kaspersky-hexa-ui-icons/src/iconsSVGs/16x12/FlagCl.svg

<svg width="16" height="12" viewBox="0 0 16 12" fill="none" xmlns="http://www.w3.org/2000/svg">
<g clip-path="url(#clip0_41813_1909)">
<rect x="0.25" y="0.25" width="15.5" height="11.5" rx="1.75" fill="white" stroke="#F5F5F5" stroke-width="0.5"/>
<mask id="mask0_41813_1909" style="mask-type:luminance" maskUnits="userSpaceOnUse" x="0" y="0" width="16" height="12">
<rect x="0.25" y="0.25" width="15.5" height="11.5" rx="1.75" fill="white" stroke="white" stroke-width="0.5"/>
</mask>
<g mask="url(#mask0_41813_1909)">
<path fill-rule="evenodd" clip-rule="evenodd" d="M0 12H16V5.59998H0V12Z" fill="#EA3B2E"/>
<rect width="5.33333" height="5.6" fill="#0B48C2"/>
<path fill-rule="evenodd" clip-rule="evenodd" d="M2.66663 3.42401L1.77096 4.09444L2.10143 2.99284L1.2174 2.30558L2.31732 2.29519L2.66663 1.20001L3.01594 2.29519L4.11586 2.30558L3.23183 2.99284L3.5623 4.09444L2.66663 3.42401Z" fill="white"/>
</g>
</g>
<defs>
<clipPath id="clip0_41813_1909">
<rect width="16" height="12" fill="white"/>
</clipPath>
</defs>
</svg>

<svg xmlns="http://www.w3.org/2000/svg" width="16" height="12" fill="none" viewBox="0 0 16 12"><g clip-path="url(#a)"><rect width="16" height="12" fill="#fff" stroke="#f5f5f5" rx="2"/><mask id="b" width="16" height="12" x="0" y="0" maskUnits="userSpaceOnUse" style="mask-type:luminance"><rect width="16" height="12" fill="#fff" stroke="#fff" rx="2"/></mask><g mask="url(#b)"><path fill="#ea3b2e" fill-rule="evenodd" d="M0 12h16V5.6H0z" clip-rule="evenodd"/><path fill="#0b48c2" d="M0 0h5.3333v5.6H0z"/><path fill="#fff" fill-rule="evenodd" d="m2.6666 3.424-.8956.6704.3304-1.1016-.884-.6872 1.1-.0104L2.6665 1.2l.3493 1.0952 1.1.0104-.884.6872.3304 1.1016z" clip-rule="evenodd"/></g></g><defs><clipPath id="a"><path fill="#fff" d="M0 0h16v12H0z"/></clipPath></defs></svg>
